icons/src/svg/smartphone.svg

<svg width="32" height="32" viewBox="0 0 32 32" fill="none" xmlns="http://www.w3.org/2000/svg">
<path fill-rule="evenodd" clip-rule="evenodd" d="M6 4C6 2.89543 6.89543 2 8 2H24C25.1046 2 26 2.89543 26 4V28C26 29.1046 25.1046 30 24 30H8C6.89543 30 6 29.1046 6 28V4ZM24 4H8V28H24V4ZM14 7C14 6.44772 14.4477 6 15 6H17.0002C17.5525 6 18.0002 6.44772 18.0002 7C18.0002 7.55228 17.5525 8 17.0002 8H15C14.4477 8 14 7.55228 14 7Z" fill="#0D0F13"/>
</svg>

<svg fill="none" xmlns="http://www.w3.org/2000/svg" viewBox="0 0 32 32">
  <path fill-rule="evenodd" clip-rule="evenodd" d="M6 4a2 2 0 0 1 2-2h16a2 2 0 0 1 2 2v24a2 2 0 0 1-2 2H8a2 2 0 0 1-2-2V4Zm18 0H8v24h16V4ZM14 7a1 1 0 0 1 1-1h2a1 1 0 1 1 0 2h-2a1 1 0 0 1-1-1Z" fill="currentColor"/>
</svg>
